Newaita-dark/apps/48/konversation.svg

<svg height="48" viewBox="0 0 48 48" width="48" xmlns="http://www.w3.org/2000/svg" xmlns:xlink="http://www.w3.org/1999/xlink"><linearGradient id="a"><stop offset="0" stop-opacity=".313726"/><stop offset=".222222" stop-opacity=".27451"/><stop offset="1" stop-opacity="0"/></linearGradient><radialGradient id="b" cx="450.908936" cy="189.579361" gradientTransform="matrix(.00000026 -.117199 -.210958 -.00000015 52.396634 95.392999)" gradientUnits="userSpaceOnUse" r="21.166656" xlink:href="#a"/><radialGradient id="c" cx="450.908936" cy="189.579361" gradientTransform="matrix(-.00000026 .117199 .210958 .00000015 -26.597298 -11.291218)" gradientUnits="userSpaceOnUse" r="21.166656" xlink:href="#a"/><radialGradient id="d" cx="450.908936" cy="189.579361" gradientTransform="matrix(-.00000026 -.117199 .210958 -.00000015 -26.597298 95.392999)" gradientUnits="userSpaceOnUse" r="21.166656" xlink:href="#a"/><radialGradient id="e" cx="450.908936" cy="189.579361" gradientTransform="matrix(.00000026 .117199 -.210958 .00000015 52.396631 -11.291219)" gradientUnits="userSpaceOnUse" r="21.166656" xlink:href="#a"/><linearGradient id="f" gradientUnits="userSpaceOnUse" x1="21.830248" x2="21.830248" y1="42.05096580616" y2="4.34417306195"><stop offset="0" stop-color="#5c6bc0"/><stop offset="1" stop-color="#7986cb"/></linearGradient><linearGradient id="g" gradientUnits="userSpaceOnUse" x1="19.84565550005" x2="19.84565550005" y1="44.03546750005" y2="4.3441580001"><stop offset="0" stop-color="#bdbdbd"/><stop offset="1" stop-color="#eee"/></linearGradient><path d="m12.898438 42.050781h3.96875v-1.984375h-3.96875zm0 0" fill="url(#b)"/><path d="m12.898438 42.050781h-3.96875v1.984375h3.96875zm0 0" fill="url(#c)"/><path d="m12.898438 42.050781h-3.96875v-1.984375h3.96875zm0 0" fill="url(#d)"/><path d="m12.898438 42.050781h3.96875v1.984375h-3.96875zm0 0" fill="url(#e)"/><path d="m23.816406 4.34375c-10.996094 0-19.847656 7.082031-19.847656 15.875 0 5.039062 2.90625 9.515625 7.453125 12.417969l.023437 7.5c.003907 1.0625.648438 1.914062 1.453126 1.914062h.496093c1.246094 0 2.167969-1.09375 5.914063-6.363281 1.445312.269531 2.953125.410156 4.507812.410156 10.992188 0 19.84375-7.082031 19.84375-15.878906 0-8.792969-8.851562-15.875-19.84375-15.875zm0 0" fill="url(#f)"/><path d="m23.816406 4.097656c-10.996094 0-19.847656 7.078125-19.847656 15.875 0 .121094.003906.246094.007812.367188.246094-8.621094 9-15.5 19.839844-15.5 10.835938 0 19.59375 6.882812 19.839844 15.503906.003906-.121094.003906-.246094.003906-.371094 0-8.796875-8.851562-15.875-19.84375-15.875zm0 0" fill="#fff" fill-opacity=".392157"/><path d="m3.972656 20.050781c-.003906.097657-.003906.195313-.003906.292969 0 5.039062 2.90625 9.515625 7.453125 12.417969l.023437 7.5c.003907 1.058593.648438 1.914062 1.453126 1.914062h.496093c1.246094 0 2.167969-1.09375 5.914063-6.363281 1.445312.269531 2.953125.410156 4.507812.410156 10.992188 0 19.84375-7.082031 19.84375-15.878906 0-.097656 0-.195312-.003906-.292969-.191406 8.660157-8.96875 15.585938-19.839844 15.585938-1.554687 0-3.0625-.140625-4.507812-.40625-3.746094 5.265625-4.667969 6.359375-5.914063 6.359375h-.496093c-.804688 0-1.449219-.851563-1.453126-1.914063l-.023437-7.496093c-4.460937-2.851563-7.339844-7.207032-7.449219-12.128907zm0 0" fill-opacity=".235294"/><path d="m23.816406 4.210938c-11.054687 0-19.980468 7.125-19.980468 16.007812 0 5.066406 2.910156 9.566406 7.453124 12.492188l.023438 7.425781c0 .558593.171875 1.0625.453125 1.433593.28125.375.683594.613282 1.132813.613282h.496093c.332031 0 .652344-.074219.988281-.269532.339844-.195312.695313-.507812 1.128907-.980468.855469-.933594 2.011719-2.507813 3.855469-5.097656 1.429687.257812 2.917968.394531 4.449218.394531 11.050782 0 19.976563-7.125 19.976563-16.011719 0-8.882812-8.925781-16.007812-19.976563-16.007812zm0 .265624c10.9375 0 19.710938 7.039063 19.710938 15.742188 0 8.707031-8.773438 15.746094-19.710938 15.746094-1.546875 0-3.046875-.140625-4.484375-.40625l-.085937-.015625-.046875.070312c-1.871094 2.632813-3.039063 4.222657-3.882813 5.140625-.421875.460938-.765625.753906-1.066406.929688-.300781.171875-.5625.234375-.855469.234375h-.496093c-.355469 0-.679688-.1875-.921876-.507813-.242187-.320312-.398437-.769531-.398437-1.273437l-.023437-7.570313-.0625-.039062c-4.515626-2.886719-7.390626-7.320313-7.390626-12.308594 0-8.703125 8.777344-15.742188 19.714844-15.742188zm0 0" fill="#212121"/><path d="m26.8125 11.785156c-.007812 0-.015625 0-.023438 0-.179687.007813-.351562.070313-.492187.1875l-5.171875 3.371094c-.199219.160156-.3125.402344-.3125.660156v8.433594c0 .253906.113281.496094.3125.65625l5.171875 3.375c.15625.128906.339844.1875.519531.1875v-16.871094c-.003906 0-.003906 0-.003906 0zm.972656 0v16.871094c1.058594 0 2.902344-.753906 2.902344-1.6875v-13.496094c0-.933594-1.84375-1.6875-2.902344-1.6875zm-7.941406 4.464844c-1.085938 0-2.949219.753906-2.949219 1.6875v5.0625c0 .933594 1.863281 1.6875 2.949219 1.6875zm0 0" fill="url(#g)"/><path d="m26.8125 11.785156c-.007812 0-.015625 0-.023438 0-.179687.007813-.351562.070313-.492187.1875l-5.171875 3.371094c-.199219.160156-.3125.402344-.3125.660156v.742188c0-.253906.113281-.496094.3125-.65625l5.171875-3.375c.140625-.113282.3125-.179688.492187-.183594h.023438.003906v-.746094c-.003906 0-.003906 0-.003906 0zm.972656 0v.746094c1.058594 0 2.902344.75 2.902344 1.6875v-.746094c0-.933594-1.84375-1.6875-2.902344-1.6875zm-7.941406 4.464844c-1.085938 0-2.949219.753906-2.949219 1.6875v.746094c0-.933594 1.863281-1.6875 2.949219-1.6875zm0 0" fill="#fff" fill-opacity=".588235"/><path d="m16.894531 23v.742188c0 .9375 1.863281 1.6875 2.949219 1.6875v-.742188c-1.085938 0-2.949219-.753906-2.949219-1.6875zm3.917969 1.4375v.742188c0 .257812.113281.5.3125.660156l5.171875 3.375c.15625.128906.339844.183594.519531.183594v-.742188c-.179687 0-.363281-.058594-.519531-.1875l-5.171875-3.375c-.199219-.160156-.3125-.402344-.3125-.65625zm9.875 2.53125c0 .933594-1.84375 1.6875-2.902344 1.6875v.742188c1.058594 0 2.902344-.75 2.902344-1.6875zm0 0" fill-opacity=".235294"/><path d="m285.972691-89.30367c-.083325 0-.166651 0-.249976 0-1.916484.083325-3.749642.749928-5.249499 1.999809l-55.161399 35.9549c-2.124797 1.70817-3.333015 4.291257-3.333015 7.040994v89.949744c0 2.708074 1.208218 5.291161 3.333015 6.999331l55.161399 35.996563c1.666508 1.374868 3.624654 1.999809 5.541138 1.999809v-179.94115c-.041663 0-.041663 0-.041663 0zm10.374009 0v179.94115c11.290589 0 30.955378-8.040899 30.955378-17.998282v-143.944587c0-9.957382-19.664789-17.998281-30.955378-17.998281zm-84.700245 47.620452c-11.582227 0-31.455329 8.040899-31.455329 17.998282v53.994843c0 9.957383 19.873102 17.998282 31.455329 17.998282zm0 0" fill="none" stroke="#212121" stroke-linecap="round" stroke-linejoin="round" stroke-width="3" transform="matrix(.093759 0 0 .093759 0 20.158175)"/></svg>

<?xml version="1.0" encoding="UTF-8"?>
<svg xmlns="http://www.w3.org/2000/svg" xmlns:xlink="http://www.w3.org/1999/xlink" width="48px" height="48px" viewBox="0 0 48 48" version="1.1">
<defs>
<radialGradient id="radial0" gradientUnits="userSpaceOnUse" cx="450.908936" cy="189.579361" fx="450.908936" fy="189.579361" r="21.166656" gradientTransform="matrix(0.000000261256,-0.117199,-0.210958,-0.000000152308,52.396634,95.392999)">
<stop offset="0" style="stop-color:rgb(0%,0%,0%);stop-opacity:0.313726;"/>
<stop offset="0.222222" style="stop-color:rgb(0%,0%,0%);stop-opacity:0.27451;"/>
<stop offset="1" style="stop-color:rgb(0%,0%,0%);stop-opacity:0;"/>
</radialGradient>
<radialGradient id="radial1" gradientUnits="userSpaceOnUse" cx="450.908936" cy="189.579361" fx="450.908936" fy="189.579361" r="21.166656" gradientTransform="matrix(-0.000000261256,0.117199,0.210958,0.000000152308,-26.597298,-11.291218)">
<stop offset="0" style="stop-color:rgb(0%,0%,0%);stop-opacity:0.313726;"/>
<stop offset="0.222222" style="stop-color:rgb(0%,0%,0%);stop-opacity:0.27451;"/>
<stop offset="1" style="stop-color:rgb(0%,0%,0%);stop-opacity:0;"/>
</radialGradient>
<radialGradient id="radial2" gradientUnits="userSpaceOnUse" cx="450.908936" cy="189.579361" fx="450.908936" fy="189.579361" r="21.166656" gradientTransform="matrix(-0.000000261256,-0.117199,0.210958,-0.000000152308,-26.597298,95.392999)">
<stop offset="0" style="stop-color:rgb(0%,0%,0%);stop-opacity:0.313726;"/>
<stop offset="0.222222" style="stop-color:rgb(0%,0%,0%);stop-opacity:0.27451;"/>
<stop offset="1" style="stop-color:rgb(0%,0%,0%);stop-opacity:0;"/>
</radialGradient>
<radialGradient id="radial3" gradientUnits="userSpaceOnUse" cx="450.908936" cy="189.579361" fx="450.908936" fy="189.579361" r="21.166656" gradientTransform="matrix(0.000000261256,0.117199,-0.210958,0.000000152308,52.396631,-11.291219)">
<stop offset="0" style="stop-color:rgb(0%,0%,0%);stop-opacity:0.313726;"/>
<stop offset="0.222222" style="stop-color:rgb(0%,0%,0%);stop-opacity:0.27451;"/>
<stop offset="1" style="stop-color:rgb(0%,0%,0%);stop-opacity:0;"/>
</radialGradient>
<linearGradient id="linear0" gradientUnits="userSpaceOnUse" x1="880" y1="1695.118164" x2="880" y2="175.118134" gradientTransform="matrix(0.0248071,0,0,0.0248071,0.000000187518,0.00000000000000282)">
<stop offset="0" style="stop-color:rgb(36.078432%,41.960785%,75.294119%);stop-opacity:1;"/>
<stop offset="1" style="stop-color:rgb(47.450981%,52.549022%,79.607844%);stop-opacity:1;"/>
</linearGradient>
<linearGradient id="linear1" gradientUnits="userSpaceOnUse" x1="211.666672" y1="254.666672" x2="211.666672" y2="-168.666656" gradientTransform="matrix(0.093759,0,0,0.093759,0,20.158175)">
<stop offset="0" style="stop-color:rgb(74.117649%,74.117649%,74.117649%);stop-opacity:1;"/>
<stop offset="1" style="stop-color:rgb(93.333334%,93.333334%,93.333334%);stop-opacity:1;"/>
</linearGradient>
</defs>
<g id="surface1">
<path style=" stroke:none;fill-rule:nonzero;fill:url(#radial0);" d="M 12.898438 42.050781 L 16.867188 42.050781 L 16.867188 40.066406 L 12.898438 40.066406 Z M 12.898438 42.050781 "/>
<path style=" stroke:none;fill-rule:nonzero;fill:url(#radial1);" d="M 12.898438 42.050781 L 8.929688 42.050781 L 8.929688 44.035156 L 12.898438 44.035156 Z M 12.898438 42.050781 "/>
<path style=" stroke:none;fill-rule:nonzero;fill:url(#radial2);" d="M 12.898438 42.050781 L 8.929688 42.050781 L 8.929688 40.066406 L 12.898438 40.066406 Z M 12.898438 42.050781 "/>
<path style=" stroke:none;fill-rule:nonzero;fill:url(#radial3);" d="M 12.898438 42.050781 L 16.867188 42.050781 L 16.867188 44.035156 L 12.898438 44.035156 Z M 12.898438 42.050781 "/>
<path style=" stroke:none;fill-rule:nonzero;fill:url(#linear0);" d="M 23.816406 4.34375 C 12.820312 4.34375 3.96875 11.425781 3.96875 20.21875 C 3.96875 25.257812 6.875 29.734375 11.421875 32.636719 L 11.445312 40.136719 C 11.449219 41.199219 12.09375 42.050781 12.898438 42.050781 L 13.394531 42.050781 C 14.640625 42.050781 15.5625 40.957031 19.308594 35.6875 C 20.753906 35.957031 22.261719 36.097656 23.816406 36.097656 C 34.808594 36.097656 43.660156 29.015625 43.660156 20.21875 C 43.660156 11.425781 34.808594 4.34375 23.816406 4.34375 Z M 23.816406 4.34375 "/>
<path style=" stroke:none;fill-rule:nonzero;fill:rgb(100%,100%,100%);fill-opacity:0.392157;" d="M 23.816406 4.097656 C 12.820312 4.097656 3.96875 11.175781 3.96875 19.972656 C 3.96875 20.09375 3.972656 20.21875 3.976562 20.339844 C 4.222656 11.71875 12.976562 4.839844 23.816406 4.839844 C 34.652344 4.839844 43.410156 11.722656 43.65625 20.34375 C 43.660156 20.222656 43.660156 20.097656 43.660156 19.972656 C 43.660156 11.175781 34.808594 4.097656 23.816406 4.097656 Z M 23.816406 4.097656 "/>
<path style=" stroke:none;fill-rule:nonzero;fill:rgb(0%,0%,0%);fill-opacity:0.235294;" d="M 3.972656 20.050781 C 3.96875 20.148438 3.96875 20.246094 3.96875 20.34375 C 3.96875 25.382812 6.875 29.859375 11.421875 32.761719 L 11.445312 40.261719 C 11.449219 41.320312 12.09375 42.175781 12.898438 42.175781 L 13.394531 42.175781 C 14.640625 42.175781 15.5625 41.082031 19.308594 35.8125 C 20.753906 36.082031 22.261719 36.222656 23.816406 36.222656 C 34.808594 36.222656 43.660156 29.140625 43.660156 20.34375 C 43.660156 20.246094 43.660156 20.148438 43.65625 20.050781 C 43.464844 28.710938 34.6875 35.636719 23.816406 35.636719 C 22.261719 35.636719 20.753906 35.496094 19.308594 35.230469 C 15.5625 40.496094 14.640625 41.589844 13.394531 41.589844 L 12.898438 41.589844 C 12.09375 41.589844 11.449219 40.738281 11.445312 39.675781 L 11.421875 32.179688 C 6.960938 29.328125 4.082031 24.972656 3.972656 20.050781 Z M 3.972656 20.050781 "/>
<path style=" stroke:none;fill-rule:nonzero;fill:rgb(12.941177%,12.941177%,12.941177%);fill-opacity:1;" d="M 23.816406 4.210938 C 12.761719 4.210938 3.835938 11.335938 3.835938 20.21875 C 3.835938 25.285156 6.746094 29.785156 11.289062 32.710938 L 11.3125 40.136719 C 11.3125 40.695312 11.484375 41.199219 11.765625 41.570312 C 12.046875 41.945312 12.449219 42.183594 12.898438 42.183594 L 13.394531 42.183594 C 13.726562 42.183594 14.046875 42.109375 14.382812 41.914062 C 14.722656 41.71875 15.078125 41.40625 15.511719 40.933594 C 16.367188 40 17.523438 38.425781 19.367188 35.835938 C 20.796875 36.09375 22.285156 36.230469 23.816406 36.230469 C 34.867188 36.230469 43.792969 29.105469 43.792969 20.21875 C 43.792969 11.335938 34.867188 4.210938 23.816406 4.210938 Z M 23.816406 4.476562 C 34.753906 4.476562 43.527344 11.515625 43.527344 20.21875 C 43.527344 28.925781 34.753906 35.964844 23.816406 35.964844 C 22.269531 35.964844 20.769531 35.824219 19.332031 35.558594 L 19.246094 35.542969 L 19.199219 35.613281 C 17.328125 38.246094 16.160156 39.835938 15.316406 40.753906 C 14.894531 41.214844 14.550781 41.507812 14.25 41.683594 C 13.949219 41.855469 13.6875 41.917969 13.394531 41.917969 L 12.898438 41.917969 C 12.542969 41.917969 12.21875 41.730469 11.976562 41.410156 C 11.734375 41.089844 11.578125 40.640625 11.578125 40.136719 L 11.554688 32.566406 L 11.492188 32.527344 C 6.976562 29.640625 4.101562 25.207031 4.101562 20.21875 C 4.101562 11.515625 12.878906 4.476562 23.816406 4.476562 Z M 23.816406 4.476562 "/>
<path style=" stroke:none;fill-rule:nonzero;fill:url(#linear1);" d="M 26.8125 11.785156 C 26.804688 11.785156 26.796875 11.785156 26.789062 11.785156 C 26.609375 11.792969 26.4375 11.855469 26.296875 11.972656 L 21.125 15.34375 C 20.925781 15.503906 20.8125 15.746094 20.8125 16.003906 L 20.8125 24.4375 C 20.8125 24.691406 20.925781 24.933594 21.125 25.09375 L 26.296875 28.46875 C 26.453125 28.597656 26.636719 28.65625 26.816406 28.65625 L 26.816406 11.785156 C 26.8125 11.785156 26.8125 11.785156 26.8125 11.785156 Z M 27.785156 11.785156 L 27.785156 28.65625 C 28.84375 28.65625 30.6875 27.902344 30.6875 26.96875 L 30.6875 13.472656 C 30.6875 12.539062 28.84375 11.785156 27.785156 11.785156 Z M 19.84375 16.25 C 18.757812 16.25 16.894531 17.003906 16.894531 17.9375 L 16.894531 23 C 16.894531 23.933594 18.757812 24.6875 19.84375 24.6875 Z M 19.84375 16.25 "/>
<path style=" stroke:none;fill-rule:nonzero;fill:rgb(100%,100%,100%);fill-opacity:0.588235;" d="M 26.8125 11.785156 C 26.804688 11.785156 26.796875 11.785156 26.789062 11.785156 C 26.609375 11.792969 26.4375 11.855469 26.296875 11.972656 L 21.125 15.34375 C 20.925781 15.503906 20.8125 15.746094 20.8125 16.003906 L 20.8125 16.746094 C 20.8125 16.492188 20.925781 16.25 21.125 16.089844 L 26.296875 12.714844 C 26.4375 12.601562 26.609375 12.535156 26.789062 12.53125 C 26.796875 12.53125 26.804688 12.53125 26.8125 12.53125 C 26.8125 12.53125 26.8125 12.53125 26.816406 12.53125 L 26.816406 11.785156 C 26.8125 11.785156 26.8125 11.785156 26.8125 11.785156 Z M 27.785156 11.785156 L 27.785156 12.53125 C 28.84375 12.53125 30.6875 13.28125 30.6875 14.21875 L 30.6875 13.472656 C 30.6875 12.539062 28.84375 11.785156 27.785156 11.785156 Z M 19.84375 16.25 C 18.757812 16.25 16.894531 17.003906 16.894531 17.9375 L 16.894531 18.683594 C 16.894531 17.75 18.757812 16.996094 19.84375 16.996094 Z M 19.84375 16.25 "/>
<path style=" stroke:none;fill-rule:nonzero;fill:rgb(0%,0%,0%);fill-opacity:0.235294;" d="M 16.894531 23 L 16.894531 23.742188 C 16.894531 24.679688 18.757812 25.429688 19.84375 25.429688 L 19.84375 24.6875 C 18.757812 24.6875 16.894531 23.933594 16.894531 23 Z M 20.8125 24.4375 L 20.8125 25.179688 C 20.8125 25.4375 20.925781 25.679688 21.125 25.839844 L 26.296875 29.214844 C 26.453125 29.34375 26.636719 29.398438 26.816406 29.398438 L 26.816406 28.65625 C 26.636719 28.65625 26.453125 28.597656 26.296875 28.46875 L 21.125 25.09375 C 20.925781 24.933594 20.8125 24.691406 20.8125 24.4375 Z M 30.6875 26.96875 C 30.6875 27.902344 28.84375 28.65625 27.785156 28.65625 L 27.785156 29.398438 C 28.84375 29.398438 30.6875 28.648438 30.6875 27.710938 Z M 30.6875 26.96875 "/>
<path style="fill:none;stroke-width:3;stroke-linecap:round;stroke-linejoin:round;stroke:rgb(12.941177%,12.941177%,12.941177%);stroke-opacity:1;stroke-miterlimit:4;" d="M 285.972691 -89.30367 C 285.889366 -89.30367 285.80604 -89.30367 285.722715 -89.30367 C 283.806231 -89.220345 281.973073 -88.553742 280.473216 -87.303861 L 225.311817 -51.348961 C 223.18702 -49.640791 221.978802 -47.057704 221.978802 -44.307967 L 221.978802 45.641777 C 221.978802 48.349851 223.18702 50.932938 225.311817 52.641108 L 280.473216 88.637671 C 282.139724 90.012539 284.09787 90.63748 286.014354 90.63748 L 286.014354 -89.30367 C 285.972691 -89.30367 285.972691 -89.30367 285.972691 -89.30367 Z M 296.3467 -89.30367 L 296.3467 90.63748 C 307.637289 90.63748 327.302078 82.596581 327.302078 72.639198 L 327.302078 -71.305389 C 327.302078 -81.262771 307.637289 -89.30367 296.3467 -89.30367 Z M 211.646455 -41.683218 C 200.064228 -41.683218 180.191126 -33.642319 180.191126 -23.684936 L 180.191126 30.309907 C 180.191126 40.26729 200.064228 48.308189 211.646455 48.308189 Z M 211.646455 -41.683218 " transform="matrix(0.093759,0,0,0.093759,0,20.158175)"/>
</g>
</svg>
